img/icon-service-events.svg

<svg width="56" height="56" viewBox="0 0 56 56" xmlns="http://www.w3.org/2000/svg"><path d="M55.548 48.53c-.106-.451-.509-.77-.973-.77-5.396 0-11.519-6.24-17.706-18.046-4.693-8.955-7.773-18.038-7.915-18.46l-.042-.109-.029-.039c-.049-.096-.116-.176-.191-.251l-.054-.071-.016-.009-.137-.076-.166-.092-.031-.007-.059-.013c-.113-.027-.23-.039-.351-.024h-.009l-.238.062-.053.038c-.096.046-.177.107-.252.179l-.078.055-.017.028-.068.112-.092.153-.021.057c-.112.333-3.2 9.464-7.917 18.466-6.189 11.807-12.312 18.047-17.708 18.047-.464 0-.867.319-.973.77-.106.452.111.917.526 1.125.312.156 5.65 2.779 14.365 4.318l.165.029c3.626.631 7.83 1.073 12.493 1.073 15.997 0 26.579-5.199 27.022-5.42.414-.208.631-.673.525-1.125zm-39.808 3.465c-4.734-.841-8.462-2.008-10.854-2.888 8.981-3.351 16.703-18.845 20.844-28.775-3.147 19.652-7.308 31.263-9.99 31.663zm2.751.432c1.95-2.269 4.314-7.631 6.944-19.938 1.092-5.107 1.972-10.244 2.585-14.138.641 3.859 1.576 8.938 2.772 13.986 2.514 10.603 5.205 17.168 8.156 19.877-3.253.514-6.933.861-10.947.861-3.434 0-6.624-.254-9.51-.648zm23.558-.775c-1.511-.114-5.193-2.413-9.309-19.763-.917-3.866-1.678-7.751-2.27-11.084 4.186 9.943 11.804 25.003 20.644 28.302-2.082.765-5.177 1.749-9.065 2.545zm-14.049-50.727v7.087l10.63-3.544z" fill="#4CAF50"/></svg>

<?xml version="1.0" encoding="UTF-8"?>
<svg width="56px" height="56px" viewBox="0 0 56 56" version="1.1" xmlns="http://www.w3.org/2000/svg" xmlns:xlink="http://www.w3.org/1999/xlink">
    <!-- Generator: Sketch 44.1 (41455) - http://www.bohemiancoding.com/sketch -->
    <title>Group</title>
    <desc>Created with Sketch.</desc>
    <defs></defs>
    <g id="Page-1" stroke="none" stroke-width="1" fill="none" fill-rule="evenodd">
        <g id="Group" fill-rule="nonzero" fill="#3F51B5">
            <path d="M55.548,48.53 C55.442,48.079 55.039,47.76 54.575,47.76 C49.179,47.76 43.056,41.52 36.869,29.714 C32.176,20.759 29.096,11.676 28.954,11.254 C28.942,11.217 28.928,11.18 28.912,11.145 C28.905,11.13 28.89,11.121 28.883,11.106 C28.834,11.01 28.767,10.93 28.692,10.855 C28.671,10.834 28.66,10.802 28.638,10.784 L28.638,10.784 C28.633,10.78 28.627,10.779 28.622,10.775 C28.581,10.742 28.531,10.725 28.485,10.699 C28.43,10.668 28.381,10.628 28.319,10.607 C28.309,10.604 28.298,10.603 28.288,10.6 C28.269,10.594 28.249,10.592 28.229,10.587 C28.116,10.56 27.999,10.548 27.878,10.563 C27.876,10.563 27.875,10.562 27.873,10.563 C27.873,10.563 27.872,10.563 27.872,10.563 C27.871,10.563 27.87,10.563 27.869,10.563 C27.869,10.563 27.869,10.563 27.869,10.563 L27.869,10.563 C27.787,10.574 27.707,10.595 27.631,10.625 C27.61,10.633 27.598,10.653 27.578,10.663 C27.482,10.709 27.401,10.77 27.326,10.842 C27.303,10.864 27.269,10.873 27.248,10.897 C27.241,10.905 27.238,10.917 27.231,10.925 C27.203,10.959 27.187,10.999 27.163,11.037 C27.132,11.088 27.093,11.133 27.071,11.19 C27.064,11.209 27.057,11.228 27.05,11.247 C26.938,11.58 23.85,20.711 19.133,29.713 C12.944,41.52 6.821,47.76 1.425,47.76 C0.961,47.76 0.558,48.079 0.452,48.53 C0.346,48.982 0.563,49.447 0.978,49.655 C1.29,49.811 6.628,52.434 15.343,53.973 C15.396,53.987 15.451,53.996 15.508,54.002 C19.134,54.633 23.338,55.075 28.001,55.075 C43.998,55.075 54.58,49.876 55.023,49.655 C55.437,49.447 55.654,48.982 55.548,48.53 Z M15.74,51.995 C11.006,51.154 7.278,49.987 4.886,49.107 C13.867,45.756 21.589,30.262 25.73,20.332 C22.583,39.984 18.422,51.595 15.74,51.995 Z M18.491,52.427 C20.441,50.158 22.805,44.796 25.435,32.489 C26.527,27.382 27.407,22.245 28.02,18.351 C28.661,22.21 29.596,27.289 30.792,32.337 C33.306,42.94 35.997,49.505 38.948,52.214 C35.695,52.728 32.015,53.075 28.001,53.075 C24.567,53.075 21.377,52.821 18.491,52.427 Z M42.049,51.652 C40.538,51.538 36.856,49.239 32.74,31.889 C31.823,28.023 31.062,24.138 30.47,20.805 C34.656,30.748 42.274,45.808 51.114,49.107 C49.032,49.872 45.937,50.856 42.049,51.652 Z" id="Shape"></path>
            <polygon id="Shape" points="28 0.925 28 8.012 38.63 4.468"></polygon>
        </g>
    </g>
</svg>
